X:1
T:Mock Morris
T:Mock Morris
T:Arranged for Four Winds
T:Percy Aldridge Grainger
T:Public Domain
T:Public Domain
T:Public Domain
T:Public Domain
T:Public Domain
T:Public Domain
T:Public Domain
T:Public Domain
T:Public Domain
T:Public Domain
T:Public Domain
C:Percy Aldridge Grainger
Z:Public Domain
%%score 1 2 3 4
L:1/8
Q:1/2=90
M:2/2
K:G
V:1 treble transpose=-2 nm="B♭ Clarinet" snm="B♭ Cl."
V:2 treble transpose=-2 nm="B♭ Trumpet" snm="B♭ Tpt."
V:3 treble transpose=-7 nm="Horn in F" snm="F Hn."
V:4 bass nm="Euphonium" snm="Euph."
V:1
[K:A] A2 e2 f2 a2 | c e2 c B2 E2 | A2 e2 f2 a2 | c e2 c B4 | A2 e2 (3fgf ed | e2 a2 edcd | %6
 e2 a2 ed B2 | ceEc B4 | E2 B2 (3cdc BA | B2 E2 (3FGF ED | E2 B2{cd} c2{Bc} BA | B2 F2 E4 | %12
 a2 e2 (3fgf ed | e2 a2 edcd | e2 a2 (3fgf ed | e2 a2 ed B2 | A2 e2 f2 d'2 | e2 c'2 edcd | %18
 e2 c'2 f d'2 b | e'2 e2 A4 | z2 E2 F4 | E2 z G A2 A2 | G2 E2 F2 EF | G2 e2 E4 | c2 e2 (3fgf ed | %25
 e2 a2 edcd | e2 a2 (3fgf ed | e2 a2 ed B2 | A2 e2 f2 d'2 | e2 c'2 edcd | e2 c'2 f d'2 b | %31
 e'2 e2 A4 | A2 e2 f2 a2 | c e2 c B2 E2 | A2 e2 f2 a2 | c e2 c B4 | A2 e2 (3fgf ed | e2 a2 edcd | %38
 e2 a2 ed B2 | ceEc B4 | E2 B2 (3cdc BA | B2 E2 (3FGF ED | E2 B2{cd} c2{Bc} BA | B2 F2 E3 z | %44
 a2 e2 (3fgf ed | e2 a2 edcd | e2 a2 (3fgf ed | e2 a2 ed B2 | A2 e2 f2 d'2 | e2 c'2 edcd | %50
 e2 c'2 d d'2 b | e'2 e2 A4 | e4 e4 | d2 e2 d4 | e2 d'2 c'2 e2 | d2 c'2 b4 | =g4 f4 | c2 B2 A3 G | %58
 F3 G A3 B | c2 d2 e2 A2 | e4 B4 | d2 e2 d4 | e2 f2 d'2 c'2 | d2 c'2 b4 | =g4 f4 | c2 B2 A3 G | %66
 A3 G B3 A | F2 G2 A4 | Ae z c B2 G2 | A2 A2 A2 G2 | Ae z A A2 G2 | A2 A2 A2 B2 | AE z c B2 G2 | %73
 A2 A2 A2 G2 | AE z A A2 A2 | e8- | e8- | e8- | e4 f2 e2 | e2 dc B4 | A6 G2 | ABA=G F3 ^G | %82
 A2 e4 d2 | c2{Bc} BA B3 z | e2 e'2 e2 e'2 | e2 e'2 e2 e'2 | e2 e'2 e2 e'2 | e2 z2 z4 | %88
 E2 A2 A2 B2 | c2 E2 A2 B2 | c2 e2 B2 d2 | B2 c2 B2 AG | A2 A2 e2 d2 | d2 c2 B2 G2 | A2 E2 A2 A2 | %95
 e2 d2 c4 | c2 c2 e2 d2 | c2 c2 d2 d2 | c2 c2 e2 d2 | c2 ef g4 | e2 a2 A2 f2 | A2 e2 A2 a2 | %102
 A2 e2 f2 g2 | a2 f2 g4 | B2 b2 (5:4:5c'/d'/c'/d'/c'/ba | b2 f2 TB4 | e2 d'2{c'd'} c'2{bc'} ba | %107
 b2 f2 g4 | a2 e2 (3fgf ed | e2 a2 edcd | e2 a2 (3fgf ed | e2 a2 ed B2 | A2 e2 f2 d'2 | %113
 e2 c'2 edcd | e2 c'4 b2- | b2 a4 g2 | aba=g f2 d'2 | e2 c'2 edcd | e2 c'2 f d'2 b | e'2 c'2 a4 | %120
 E4 E4 | D2 E2 D4 | B,2 E2 G2 A,2 | A,2 A2 GFED | C4 F4 | z2 D2 z2 C2 | F2 z G A2 z B | %127
 c2 d2 e2 A2 | C4 B,4 | D2 E2 D4 | A,2 E2 E2 A,2 | A,2 D2 D4 | C4 D4 | z2 D2 z2 C2 | %134
 F2 z G A2 z G | F2 G2 A2 z2 | A2 e2 f2 a2 | c e2 c B2 E2 | A2 e2 f2 a2 | c e2 c B4 | %140
 A2 e2 (3fgf ed | e2 a2 edcd | e2 a2 ed B2 | ceEc B3 z | E2 B2 (3cdc BA | B2 E2 (3FGF ED | %146
 E2 B2{cd} c2{Bc} BA | B2 F2 E4 | a2 e2 (3fgf ed | e2 a2 edcd | e2 a2 (3fgf ed | e2 a2 ed B2 | %152
 A2 e2 f2 d'2 | e2 c'2 edcd | e2 c'2 f d'2 b | e'2 e2 A3 z | z2 G2 A4 | z2 B2 c2 d2 | e2 G2 A4 | %159
 z2 B2 E2 z2 | A2 E2 (3FGF ED | E2 A2 EDCD | E2 A2 (3FGF ED | E2 A2 ED B,2 | A,2 E2 F2 d2 | %165
 E2 c2 EDCD | E2 c2 F d2 B | e2 c2 A2 z2 |] %168
V:2
[K:A] E2 A2 A2 B2 | A2 E2 F2 E2 | E2 A2 e2 d2 | c2 F2 G4 | E2 A2 A2 G2 | A2 c2 A2 f2 | %6
 A2 c2 A2 G2 | A2 F2 G4 | E2 G2 A2 c2 | B2 E2 D2 F2 | E2 G2 A2 F2 | G2 D2 B,4 | E2 A2 A2 G2 | %13
 A2 c2 A2 B2 | B2 A2 A2 G2 | A2 c2 B2 B2 | E2 A2 A2 g2 | A2 f2 A2 G2 | A2 e2 e2 d2 | c2 B2 A4 | %20
 z2 G2 A4 | G2 z B c2 d2 | e2 G2 A2 GA | B2 c2 B4 | c2 A2 A2 B2 | A2 e2 f2 ed | c2 e2 e2 d2 | %27
 c2 c2 B2 G2 | A2 c2 e2 d2 | d2 c2 c2 B2 | c2 e2 d2 f2 | e2 d2 c4 | c4 (3ded cB | cB A4 G2 | %34
 c4 (3ded cB | cBAF E4 | c2 Bc d4 | (3efe de f4 | (3efe de f2 g2 | agab ag e2 | (3gag fg ag f2 | %41
 e3 B cBcd | ef g2 (3aba gf | gaba gfed | c2 e2 f2 g2 | a3 e f2 g2 | a2 c2 d2 b2 | c2 AB AGFE | %48
 A2 =G2 F c2 B | c b2 a B2 g2 | aba=g f2{ef} ed | c2 B2 A4 | a4 e3 f | =ga g2 f3 f | e2 d2 c2 e2 | %55
 f2 c2 B4 | a4 d4 | efed cB A2 | dc d2 ef e2 | cd c2 B2 A2 | a4 e3 f | =ga g2 f3 f | B2 f2 e2 B2 | %63
 A2 f2 gfed | a4 d4 | efed cB A2 | dc d2 ef e2 | c2 B2 A4 | cE z e d2 e2 | c2 e2 d2 e2 | %70
 cE z e d2 e2 | c2 e2 B2 e2 | cE z e d2 e2 | c2 e2 d2 e2 | cE z e d2 e2 | c2 d2 c4 | ce z e d2 e2 | %77
 c2 e2 B2 e2 | ce z e d2 e2 | c2 e2 B2 e2 | ce z e d2 e2 | ce z e d2 f2 | e2 z e f2 g2 | %83
 agab ag e2 | (3gag fg ag f2 | e3 B cBcd | ef g2 (3aba gf | gaba gfed | c2 e2 f2 g2 | a3 e f2 g2 | %90
 a2 c'2 d2 b2 | c2 ab agfe | a2 =g2 f c'2 b | e b2 a B2 g2 | aba=g (5:4:5f/g/f/e/f/^ga | e2 d2 c4 | %96
 A2 E2 B2 B2 | E E2 E E2 E2 | A2 E2 B2 B2 | e e2 e e4 | A2 e2 (3fgf ed | e2 a2 edcd | e2 a2 ed B2 | %103
 ceEc B4 | E2 B2 f2 BA | B2 G2 TA4 | G2 d2{/f} f2{/f} f2 | B2 e2 B4 | A2 E2 F2 B2 | E2 e2 F2 E2 | %110
 E2 C2 F2 G2 | A2 A,2 A2 G2 | c2 c'4 b2- | b2 a4 g2 | aba=g f2 d2 | e2 c2 edcd | e2 c2 e c2 B | %117
 d B2 A B A2 g | aABc (3ded cB | c2 B2 A4 | A4 E3 F | =GA G2 F3 F | E2 F2 d2 c2 | D2 c2 B4 | %124
 A4 D4 | EFED CB, A,2 | DC D2 EF E2 | CD C2 B,2 A,2 | A4 E3 F | =GA G2 F3 F | E2 d2 c2 E2 | %131
 F2 c2 B4 | A4 D4 | EFED CB, A,2 | DC D2 EF E2 | C2 B,2 A,3 z | E2 A2 c2 B2 | B2 A2 F2 D2 | %138
 E2 A2 c2 B2 | B2 F2 G3 z | E2 A2 A2 G2 | A2 c2 A2 G2 | A2 e2 A2 B2 | c2 ^d2 e2 z2 | E2 e2 E2 e2 | %145
 E2 e2 E2 e2 | E2 e2 E2 e2 | E2 e2 E2 z2 | e2 A2 A2 B2 | c2 A2 A2 E2 | z2 c2 z2 d2 | z2 c2 z2 B2 | %152
 E2 A2 d2 G2 | c2 F2 D2 E2 | A2 E2 edcB | A2 G2 E2 z2 | z2 E2 F4 | z2 G2 A2 F2 | B2 E2 F4 | %159
 z2 F2 B,2 z2 | A,2 A2 A,2 A2 | A,2 A2 A,2 A2 | A,2 A2 A,2 A2 | A,2 A2 F2 G2 | E2 A2 F2 G2 | %165
 E2 F2 F2 G2 | A2 =G2 F2 z A | G2 E2 A,2 z2 |] %168
V:3
[K:D] A,2 D2 D2 d2 | D2 A,2 D2 C2 | A,2 D2 d2 e2 | e2 d2 A4 | F2 A2 B2 G2 | A2 F2 B2 d2 | %6
 A2 d2 B2 G2 | F2 A2 A4 | C2 A2 B2 B2 | c2 E2 D2 F2 | G2 A2 B2 G2 | A2 D2 C4 | d2 A2 B2 G2 | %13
 A2 F2 B2 d2 | A2 F2 A2 G2 | A2 d2 A2 G2 | F2 A2 B2 G2 | A2 F2 G2 A2 | A,2 D2 B2 d2 | d2 c2 A4 | %20
 z2 G2 G4 | G2 z G G2 G2 | E2 G2 G3 G | G2 d2 C4 | d2 D2 D2 C2 | D2 d2 d2 e2 | A2 d2 d2 e2 | %27
 e2 d2 A2 G2 | G2 A2 d2 c2 | c2 B2 B2 A2 | d2 c2 f2 d2 | d2 c2 A4 | F2 A2 B2 G2 | A2 F2 G2 E2 | %34
 F2 A2 D2 G2 | F2 A2 c4 | A2 d2 d2 A2 | d2 A2 d2 A2 | d2 A2 d2 e2 | d2 d2 e4 | E2 G2 B2 d2 | %41
 c2 A2 G2 F2 | E2 c2 d2 B2 | c2 d2 c3 z | F2 A2 B2 G2 | F2 A2 B2 G2 | A2 F2 G2 E2 | D2 e2 d2 c2 | %48
 AB =c2 B2 ^c2 | A2 B2 G2 A2 | A2 d2 B2 d2 | A2 A2 A4 | d4 c4 | e2 A2 d4 | A2 d2 d2 A2 | %55
 d2 d2 cBAG | A4 d4 | A4 D3 z | G4 A4 | F2 G2 A2 F2 | d4 c4 | e2 A2 D4 | c3 d e2 d2 | A2 d2 e4 | %64
 d4 c4 | e2 A2 D4 | c3 d e2 d2 | G2 d2 e4 |!ff! d4 c3 A | d4 e3 z | f4 (3gag fe | fe d4 c2 | %72
 d4 c3 A | d4 e3 z | (3fgf ef gf g2 | a2 e2 A4 | DD A2 F2 A2 | DD A2 D2 E2 | DD A2 D2 A2 | %79
 DD D2 D2 E2 | DD A2 E2 A2 | DD A2 D2 E2 | DD D2 D2 G2 | F2 ^G2 A3 z | c2 z2 B2 z2 | c2 z2 d2 z2 | %86
 c2 z2 B2 z2 | c2 z2 z4 | d2 A2 (3BcB AG | A2 d2 AGFG | A2 d2 (3BcB AG | A2 d2 AG E2 | %92
 D2 A2 B2 g2 | A2 f2 AGFG | A2 f2 B g2 e | a2 A2 D4 | D2 A2 B2 d2 | F A2 F E2 A,2 | D2 A2 B2 d2 | %99
 F A2 F E4 | F2 A2 B2 G2 | A2 F2 D2 B2 | A2 F2 B2 c2 | d/e/dcB c4 | e2 e2 d4 | e2 e2 d4 | %106
 e2 e2 d2 d2 | A2 G2 F4 | F2 d2 d2 A2 | d2 A2 d2 e2 | d2 A2 d2 c2 | d2 A2 E2 A2 | F2 d2 d2 c2 | %113
 f2 A2 G2 G2 | F2 F2 A2 c2 | f2 A2 e2 g2 | f2 e2 A2 G2 | G2 F2 E2 G2 | F2 F2 G2 G2 | F2 G2 F4 | %120
 D4 C4 | =C2 D2 D4 | C2 D2 E2 F2 | F2 G2 G4 | =C4 B,4 | z2 A,2 z2 B,2 | D4 D4 | A2 B2 c2 d2 | %128
 D4 C4 | =C2 D2 D3 G | A2 G2 F2 F2 | A2 D2 AGFE | =C4 B,4 | A,2 A2 B2 B,2 | z2 E2 z2 F2 | %135
 ^G2 A2 D2 z2 | F4 (3GAG FE | FE D4 C2 | F4 (3GAG FE | FEDB, A,4 | F2 EF G4 | (3ABA GA B4 | %142
 (3ABA GA B2 c2 | dcde dc A2 | (3cdc Bc dc B2 | A3 E FEFG | AB c2 (3ded cB | cded cBAG | %148
 F2 A2 B2 c2 | d3 A B2 c2 | d2 f2 G2 e2 | F2 de dcBc | A2 f4 e2- | e2 d4 c2 | ded=c B2{AB} AG | %155
 F2 E2 D3 z | z2 G2 G4 | z2 G2 B2 d2 | c2 G2 G4 | z2 D2 C2 z2 | A,2 D2 G,2 D2 | A,2 D2 B,2 D2 | %162
 A,2 D2 G,2 D2 | A,2 D2 A,2 E2 | F2 A2 D2 A,2 | E2 D2 D2 C2 | D2 A2 A2 G2 | E2 A2 D2 z2 |] %168
V:4
 B,2 D2 E2 C2 | D2 B,2 C2 C2 | B,2 D2 E2 C2 | D2 B,2 A,4 | D,2 G,2 G,2 F,2 | G,2 D,2 G,2 E2 | %6
 G,2 D2 G,2 A,2 | D,2 G,2 A,4 | D,2 A,2 B,2 C2 | A,2 C2 B,2 G,2 | A,2 A,2 G,2 B,2 | A,2 E,2 A,,4 | %12
 B,2 G,2 G,2 D,2 | G,2 D,2 G,2 E2 | G,2 D2 G,2 D,2 | G,2 B,2 D,2 A,2 | D,2 G,2 G,2 F,2 | %17
 G,2 D,2 A,2 C2 | B,2 D2 G,2 E2 | D2 C2 B,4 |!f! D,2 A,2 !turn!B,2 A,G, | A,2 D,2 !turn!E,2 D,C, | %22
 D,2 A,2{A,C} A,2{A,B,} A,G, | A,2 E,2 D,4 | B,2 D2 E2 C2 | D2 B,2 G,2 C2 | G,2 D2 E2 F,2 | %27
 G,2 B,2 A,2 D,2 | C2 B,2 E2 C2 | D2 B,2 C2 C2 | B,2 G,2 G,2 C2 | B,2 A,2 B,4 | G,2 B,2 C2 A,2 | %33
 B,2 G,2 D2 D,2 | G,2 B,2 C2 A,2 | G,2 B,2 D4 | B,2 D2 E2 C2 | D2 B,2 E2 C2 | D2 B,2 E2 C2 | %39
 B,3 ^C A,4 | D,2 D2 C2 A,2 | D2 D,2 E,2 A,,2 | D,2 D2 C2 A,2 | D2 A,2 D,2 z2 | D,2 G,2 G,2 F,2 | %45
 D,2 G,2 G,2 F,2 | G,2 D,2 D,2 E,2 | D,2 E,2 D,2 A,2 | B,2 G,2 G,2 D,2 | G,2 D,2 D,2 C2 | %50
 B,2 A,2 G,2 C2 | B,2 C2 B,4 | D,4 A,,4 | A,,2 B,,2 C,3 D, | E,2 F,2 G,2 =F,2 | E,2 A,,2 D,4 | %56
 D,4 G,4 | D,2 D2 E2 E,2 | z2 A,,2 z2 B,,2 | z =F, E,2 A,2 D,2 | D,4 A,4 | C2 D2 E4 | %62
 A,3 G, F,2 G,2 | E,2 C,2 A,4 | D,4 A,4 | C2 D2 E4 | A,3 G, F,2 G,2 | E,2 C,2 A,4 | %68
 D,2 B,2 D,2 A,2 | D,2 B,,2 A,2 D,2 | D,2 B,2 C,2 A,,2 | B,,2 D,2 A,2 D,2 | D,2 B,2 D,2 A,2 | %73
 D,2 B,,2 A,2 D,2 | D,2 B,2 C,2 A,,2 | D,2 A,2 D,4 | G,4 F,3 D, | G,4 A,3 z | B,4 (3CDC B,A, | %79
 B,A, G,4 F,2 | G,4 A,3 D, | B,4 (3CDC B,C | D2 CD E2 F2 | GFGA GF D2 | D,2 z2 C,2 z2 | %85
 D,2 z2 A,,2 z2 | D,2 z2 C,2 z2 | F,2 z2 z4 | G2 D2 E2 DC | D2 G2 DCB,C | D2 B,2 F,2 z2 | %91
 G,2 z2 F,2 z2 | G,2 z2 D,2 z2 | G,2 B,2 C2 A,2 | B,2 G,2 A,2 D,2 | G,2 B,2 C4 | A,2 B,2 D2 A,2 | %97
 A,2 B,2 D2 D2 | G,2 B,2 C2 A,2 | B,2 G,B, D4 | G,2 B,2 C2 A,2 | B,2 G,2 E2 G2 | B,2 G2 C2 D2 | %103
 G,2 B,2 D4 | D,2 D2 C2 A,2 | D,2 C2 (5:4:5B,/C/B,/C/B,/A,G, | A,2 D2 E2 A,2 | D,2 A,2 D4 | %108
 A,2 B,2 C2 A,2 | B,2 G,2 C2 D2 | B,2 G,2 C2 A,2 | B,2 G,2 D2 D,2 | G,2 B,2 C2 A,2 | %113
 B,2 G,2 A,2 D,2 | G,2 D2 C2 A,2 | B,2 G,2 A,2 D,2 | G,2 =F,2 E,2 A,2 | D,2 G,2 C,2 D,2 | %118
 G,2 =F,2 E,2 _E,2 | D,2 D,2 G,,4 | D,4 A,,4 | A,,2 B,,2 C,4 | C,3 B,, A,,2 G,,F,, | %123
 E,,2 G,,2 A,,4 | D,4 G,,4 | F,4 G,2 z2 | E,2 z F, G,2 z A, | =F,2 E,2 D,2 G,2 | D,4 A,,4 | %129
 A,,2 B,,2 C,3 D, | E,2 F,2 G,2 =F,2 | E,2 C,2 A,4 | D,4 G,,4 | F,4 G,2 z2 | G,4 G,4 | %135
 G,2 C2 B,3 z | G,2 B,2 C2 E2 | G,2 B,2 D2 D,2 | G,2 B,2 C2 E,2 | G,2 B,2 D3 z | G,2 B,2 C2 A,2 | %141
 B,2 G,2 C2 A,2 | B,2 G,2 C2 D2 | G,2 E,2 D,2 z2 | D,2 z2 C,2 z2 | D,2 z2 A,,2 z2 | D,2 z2 C,2 z2 | %147
 D,2 A,2 D2 z2 | G,2 B,2 C2 D2 | G,2 B,2 C2 D2 | G,2 z2 F,2 z2 | G,2 z2 D,2 z2 | G,2 B,2 C2 A,2 | %153
 B,2 G,2 A,2 D,2 | G,2 B,2 C2 A,2 | D2 D2 G,2 z2 |!f! D,2 A,2 !turn!B,2 A,G, | %157
 A,2 D,2 !turn!E,2 D,C, | D,2 A,2{A,C} A,2{A,B,} A,G, | A,2 E,2 D,2 z2 | G,2 B,2 C2 A,2 | %161
 B,2 G,2 E,2 G,2 | B,2 G,2 C2 A,2 | B,2 G,2 A,2 D,2 | G,2 B,2 C2 A,2 | B,2 G,2 A,2 D,2 | %166
 G,2 B,2 C2 A,2 | D2 D,2 G,2 z2 |] %168

